icons/svg/loupe.svg

<svg xmlns="http://www.w3.org/2000/svg" version="1.1" baseProfile="full" width="24" height="24" viewBox="0 0 24.00 24.00" xml:space="preserve"><path fill="#000" fill-opacity="1" stroke-linejoin="round" d="M12 20c-4.41 0-8-3.59-8-8s3.59-8 8-8 8 3.59 8 8-3.59 8-8 8zm0-18C6.49 2 2 6.49 2 12s4.49 10 10 10h8c1.1 0 2-.9 2-2v-8c0-5.51-4.49-10-10-10zm1 5h-2v4H7v2h4v4h2v-4h4v-2h-4V7z"/></svg>

﻿<?xml version="1.0" encoding="utf-8"?>
<!DOCTYPE svg PUBLIC "-//W3C//DTD SVG 1.1//EN" "http://www.w3.org/Graphics/SVG/1.1/DTD/svg11.dtd">
<svg xmlns="http://www.w3.org/2000/svg" xmlns:xlink="http://www.w3.org/1999/xlink" version="1.1" baseProfile="full" width="24" height="24" viewBox="0 0 24.00 24.00" enable-background="new 0 0 24.00 24.00" xml:space="preserve">
	<path fill="#000000" fill-opacity="1" stroke-linejoin="round" d="M 12,20C 7.59,20 4,16.41 4,12C 4,7.59 7.59,4 12,4C 16.41,4 20,7.59 20,12C 20,16.41 16.41,20 12,20 Z M 12,2C 6.49,2 2,6.49 2,12C 2,17.51 6.49,22 12,22L 20,22C 21.1,22 22,21.1 22,20L 22,12C 22,6.49 17.51,2 12,2 Z M 13,7L 11,7L 11,11L 7,11L 7,13L 11,13L 11,17L 13,17L 13,13L 17,13L 17,11L 13,11L 13,7 Z "/>
</svg>
